X:1
T:Title
%%score { ( 1 4 ) | ( 2 3 5 ) }
L:1/8
M:3/4
K:F
V:1 bass nm="Grand Piano"
V:4 bass 
V:2 bass 
V:3 bass 
V:5 bass 
V:1
 z2 z[Q:1/4=100] [A,C] =B,>C | [_A,D-]4 D>C | C3[K:treble] [F,A,CF] [G,B,F]2 | %3
 [CEc]3 [EB] [EA]>[CG] | [A,CF]3 [A,C] =B,>C | [_A,D]3 D D>C | C3 C D>[CD] | [B,D]3 D G,>B, | %8
 z2 z [=B,F] z2 | B3 E D>C | A3 C z2 | [G,=B,G]4 A,>B, |[M:7/16] C/-C/-C/-C-<C |[M:3/8] [CA]G>C | %14
[M:3/4][K:bass] [A,F]4 C2 | C3[K:treble] B A>G | C3 D[K:bass] [F,A,C]>[F,A,] |[M:3/8] [F,A,C]3 | %18
 AG>C |[M:3/4] [A,CF]2 FF [A,_EF]2 | [DFBd]3 [F,CF] [G,B,F]2 | [EBc][Bc] [Bc][DEB] [EA]>[CG] | %22
[M:3/8] [F,A,CF]3 |] %23
V:2
 z2 z2 _A,>=A, | z2 z A, B,>A, | A,3 A,, z z/ E/ | z2 z D C>B, | [F,,B,,]4 _A,>=A, | %5
 z2 z A, B,>A, | A,3 A, [B,,F,B,]>[A,,^F,] | z2 z B, G,,>B,, | z2 z2 G,2 | %9
 [C,B,]3- [C,-G,B,-] [C,-F,B,-]>[C,E,B,] | F,4 G,2 | [G,,F,]6 |[M:7/16] [E,G,] z/ z/ z/ z | %13
[M:3/8] z B,2 |[M:3/4] F,,3 A,, G,,>C, | [E,B,]3 [E,DE] [CE]>[B,C] | [C,B,]3- [C,E,B,] z z/ C,/ | %17
[M:3/8] z3 | [F,C] [C,B,C]2 |[M:3/4] [F,,F,]2 [D,A,D]2 z z/ F/ | B,,3 A,, z z/ E/ | z D CC C>B, | %22
[M:3/8] F,,3 |] %23
V:3
 z2 z [F,,F,]3 | F,,6- | F,,4 C,2 | C,6 | z2 z [F,,F,]3 | [F,,F,]6- | [F,,F,]4 z2 | [G,,G,]4 z2 | %8
 D,3 .[G,,D,] [C,B,]->[C,F,B,] | F,4 z2 | F,,3- [F,,C,] [G,,F,]->[G,,F,G,=B,] | x6 | %12
[M:7/16] C,-[C,-F,][C,G,]3/2 |[M:3/8] [F,,F,]3 |[M:3/4] x6 | z2 z2 E,2 | E,4 F,,2 |[M:3/8] F,,3- | %18
 F,,3 |[M:3/4] z2 z2 C,2 | z2 z2 C,2 | C,6- |[M:3/8] C,3 |] %23
V:4
 x6 | F,6- | F,4[K:treble] z2 | x6 | x6 | x6 | x6 | x6 | D3 z/ G,/ E>D | x6 | %10
 A,3- A,/-[F,A,]/ =B,>G | z2 z G,3 |[M:7/16] z A,B,3/2 |[M:3/8] x3 | %14
[M:3/4][K:bass] F,3- [F,C] [E,B,]->[E,B,D] | x3[K:treble] x3 | x4[K:bass] x2 |[M:3/8] x3 | x3 | %19
[M:3/4] x6 | x6 | x6 |[M:3/8] x3 |] %23
V:5
 x6 | x6 | x6 | x6 | x6 | x6 | x6 | x6 | x6 | x6 | x6 | x6 |[M:7/16] x7/2 |[M:3/8] x3 |[M:3/4] x6 | %15
 B,,6 | x6 |[M:3/8] x3 | x3 |[M:3/4] x6 | x6 | x6 |[M:3/8] x3 |] %23

